X: 670
T: Da suanzao
%%abc-version 2.0
%%abcx-abcm2ps-target-version 5.9.1 (29 Sep 2008)
%%abc-creator hum2abc beta
%%abcx-conversion-date 2013/10/02 07:52:30
%%abc-edited-by Helmut Schaffrath
%%humdrum-veritas 1775607947
%%humdrum-veritas-data 3225849652
%%continueall 1
%%barnumbers 0
L: 1/8
M: 2/4
K: A
B2F A [I:setbarnb 1]| 
B2F A | 
B A F A | 
B A B A | 
B4 | 
A B/ B/ e c | 
B4 | 
A> B G F | 
E D z F | 
E Dz2 | 
F F/ F/ B G/ G/ | 
F3E | 
D E F D | 
B,4 |]  



